X:1
T:Title
%%score ( 1 2 ) { 3 | 4 }
L:1/8
Q:1/4=98
M:4/4
K:F
V:1 treble nm="Grand Piano, Soprano"
V:2 treble 
V:3 bass nm="Choir Pad, Tucson, 11.10.11.10 D"
V:4 bass 
V:1
 [DF]2 [^CE][DF] [DB]3 [Dc] | [_EB][EA][EG][EA] [DB]2 [DF]2 | [DF]2 [FB][Fc] [Fd]3 [Fd] | z4 c4 | %4
w: By~Adam~Geibel * * * *||||
 [DF]2 [^CE][DF] [DB]3 [Dc] | [_EB][EA][EG][EA] [DB]2 [DF]2 | [FB]2 [Fc][Fd] [Gf]3 [G_e] | %7
w: |||
 [Fd][_Ec][EG][EA] .[DB]4 | D2 [DG][DB] [Dd]3 [GB] | [GB][^FA][FA][FB] [FA]2 G2 | %10
w: |||
 [DG]2 [^FA][FA] [GB]3 [=Fd] | z4 c4 | [DF]2 [^CE][DF] [DB]3 [Fc] | %13
w: |||
 [Fd][Fc][Fd][_Af] [Gf]2 [G_e]2 | [_EG]2 [Gd][Gc] [FB]3 [=EB] | [_EB][EA][EG][EA] [DB]4- | %16
w: |||
 [DB]4 z4 |] %17
w: |
V:2
 x8 | x8 | x8 | [Ed][Ec][EB][Ed] F2 _E2 | x8 | x8 | x8 | x8 | x8 | x8 | x8 | %11
 [Ed][Ec][EB][Ed] F2 _E2 | x8 | x8 | x8 | x8 | x8 |] %17
V:3
 B,2 B,B, F,3 F, | F,F,F,F, F,2 B,2 | B,2 B,A, B,3 B, | B,B,G,B, A,4 | B,2 B,B, F,3 F, | %5
 F,F,F,F, F,2 B,2 | B,2 A,B, B,3 B, | A,A,B,C .B,4 | B,2 B,B, B,3[K:treble] D | DCCD C2 B,2 | %10
 B,2 DD D3[K:bass] B, | B,B,G,B, A,4 | B,2 B,B, F,3 A, | B,A,B,B, B,2 B,2 | %14
 B,2[K:treble] F_E D3 ^C | CCCC B,4- | B,4 z4 |] %17
V:4
 B,,2 B,,B,, B,,3 B,, | C,C,F,,F,, B,,2 B,,2 | B,,2 D,F, z2 z B,, | C,C,C,C, F,4 | %4
 B,,2 B,,B,, B,,3 B,, | C,C,F,,F,, B,,2 B,,2 | D,2 .F,2 _E,3 E, | F,F,F,F, .B,,4 | %8
 G,2 G,G, G,3 G, | D,D,D,D, G,2 G,2 | G,2 D,D, G,3 G, | C,C,C,C, F,4 | B,,2 B,,B,, B,,3 F, | %13
 z F,D,B,, _E,2 E,2 | _E,2 E,E, F,3 F, | F,F,F,F, B,,4- | B,,4 z4 |] %17

